X: 15608
T: Goat Island Ceilidh Band, The
R: reel
M: 4/4
K: Gmajor
dc|B2 dB A2 BA|G2 G/G/G GEDE|G3G GEDE|GABd A2 dc|
BedB AdBA|G2 G/G/G GEDE|GABd gedB|dBAB GA:|
Bd|e2 dB e2 dB|efgf e2 dB|d2 BA d2 Bd|edBd A2 d/e/f|
gedB edBA|G2 G/G/G GEDE|GABd gedB|dBAB GA:|

